assets/bonusesPageBg.svg

<svg width="67" height="57" viewBox="0 0 67 57" fill="none" xmlns="http://www.w3.org/2000/svg">
<path d="M19.3748 37.7128L10.2949 37.0171L2.28408 47.4781L11.7017 39.9616L18.2349 41.2482L19.3748 37.7128Z" fill="#FF513F"/>
<path d="M19.2546 42.0553L12.4893 43.909L7.62206 56.1522L14.6652 46.32L23.499 44.3073L19.2546 42.0553Z" fill="#FF513F"/>
<path d="M46.6266 37.2963L54.6083 32.8721L66.2471 39.0189L54.5375 36.1513L49.1084 40.0498L46.6266 37.2963Z" fill="#FF513F"/>
<path d="M47.1162 41.4064L54.1142 41.8556L61.2895 52.9296L52.4736 44.6796L43.3645 44.459L47.1162 41.4064Z" fill="#FF513F"/>
<path d="M17.3131 31.6625L24.2641 31.3063L23.9507 33.1874L15.6771 33.552L17.3131 31.6625Z" fill="#FF513F"/>
<path d="M17.3153 31.6615L16.8626 25.0743L15.2828 25.1597L15.6794 33.5509L17.3153 31.6615Z" fill="#FF513F"/>
<path d="M52.3785 31.7871L48.372 24.5165L47.0269 25.3109L50.1043 31.0574L52.3785 31.7871Z" fill="#FF513F"/>
<path d="M52.3816 31.7878L45.5052 35.9942L44.2753 34.5749L50.0647 31.0468L52.3816 31.7878Z" fill="#FF513F"/>
<path d="M12.4887 43.9076L14.6645 46.3199L23.4984 44.3063L19.2539 42.0531L12.4887 43.9076Z" fill="#FF513F"/>
<path d="M43.3644 44.4596L47.1162 41.4078L54.1143 41.8568L52.4736 44.6801L43.3644 44.4596Z" fill="#FF513F"/>
<path d="M46.6265 37.2965L49.1084 40.05L54.5375 36.1514L54.6083 32.8721L46.6265 37.2965Z" fill="#FF513F"/>
<path d="M19.3767 37.7132L18.2368 41.2486L11.7036 39.9621L10.2969 37.0176L19.3767 37.7132Z" fill="#FF513F"/>
<path d="M41.0915 30.9977L23.8323 29.8441L14.6011 37.6984L22.7146 46.7283L39.9737 47.8818L49.1622 40.0165L41.0915 30.9977Z" fill="#FF513F"/>
<path d="M15.3119 25.7376L5.31978 19.6422L11.0655 6.5063L15.0259 20.302L15.2344 10.4292L21.5726 18.9118L16.8919 25.6523L15.3119 25.7376Z" fill="#FF513F"/>
<path d="M48.1973 25.2008L52.0446 17.1822L43.0059 11.21L46.1505 21.6454L41.9637 15.426L41.446 23.442L47.1751 25.8046L48.1973 25.2008Z" fill="#FF513F"/>
<path d="M29.3568 8.11863L28.5112 10.2227L46.3087 17.4682L47.1543 15.3642L29.3568 8.11863Z" fill="#001E20"/>
<path d="M34.1584 4.3137L31.7568 10.3008L43.8919 15.2551L46.2935 9.26802L34.1584 4.3137Z" fill="#001E20"/>
<path d="M14.6008 37.6986L49.108 40.0484L39.9734 47.8809L22.7143 46.7275L14.6008 37.6986Z" fill="#AA3528"/>
<path d="M36.2488 33.106L38.7593 25.9457L37.6956 22.0867L35.633 25.2833L36.2488 33.106Z" fill="#001E20"/>
<path d="M28.1911 32.6972L30.4457 25.2262L29.2241 21.7181L27.1896 25.2366L28.1911 32.6972Z" fill="#001E20"/>
</svg>

<svg xmlns="http://www.w3.org/2000/svg" width="67" height="57" fill="none" xmlns:v="https://vecta.io/nano"><g fill="#ff513f"><path d="M19.375 37.713l-9.08-.696-8 10.46 9.418-7.517 6.533 1.287 1.14-3.535zm-.12 4.342L12.5 43.9 7.622 56.152l7.043-9.832 8.834-2.013-4.244-2.252zm27.372-4.76l7.982-4.424 11.64 6.147-11.7-2.868-5.43 3.898-2.482-2.753zm.49 4.1l6.998.45L61.3 52.93l-8.816-8.25-9.1-.22 3.752-3.053zm-29.803-9.743l6.95-.356-.313 1.88-8.274.365 1.636-1.9z"/><path d="M17.315 31.662l-.453-6.587-1.58.085.397 8.4 1.636-1.9zm35.065.125l-4.007-7.27-1.345.794 3.077 5.747 2.274.73z"/><path d="M52.382 31.788l-6.876 4.206-1.23-1.42 5.8-3.528 2.317.74zM12.5 43.908l2.176 2.412 8.834-2.014-4.244-2.253-6.765 1.855zm30.874.552l3.752-3.052 6.998.45-1.64 2.823-9.1-.22zm3.263-7.163l2.482 2.753 5.43-3.9.07-3.28-7.982 4.424zm-27.25.416l-1.14 3.535-6.533-1.287-1.407-2.944 9.08.696z"/><path d="M41.092 30.998l-17.26-1.154-9.23 7.854 8.114 9.03 17.26 1.154 9.188-7.865-8.07-9.02zm-25.78-5.26L5.32 19.642l5.746-13.136 3.96 13.796.2-9.873 6.338 8.483-4.68 6.74-1.58.085zm32.885-.538l3.847-8.02-9.04-5.972 3.145 10.435-4.187-6.22-.518 8.016 5.73 2.363 1.022-.604z"/></g><g fill="#001e20"><path d="M29.357 8.12l-.846 2.104 17.798 7.246.846-2.104L29.357 8.12z"/><path d="M34.158 4.314L31.757 10.3l12.135 4.954 2.402-5.987-12.135-4.954z"/></g><path d="M14.6 37.7l34.507 2.35-9.135 7.832-17.26-1.153L14.6 37.7z" fill="#aa3528"/><path d="M36.25 33.106l2.5-7.16-1.064-3.86-2.063 3.197.616 7.823zm-8.06-.41l2.255-7.47-1.222-3.508-2.035 3.518 1.002 7.46z" fill="#001e20"/></svg>
